02.Resources/02.Icons/bxl-instagram-alt.svg

<svg xmlns="http://www.w3.org/2000/svg" width="24" height="24" viewBox="0 0 24 24"><path d="M20.947 8.305a6.53 6.53 0 0 0-.419-2.216 4.61 4.61 0 0 0-2.633-2.633 6.606 6.606 0 0 0-2.186-.42c-.962-.043-1.267-.055-3.709-.055s-2.755 0-3.71.055a6.606 6.606 0 0 0-2.185.42 4.607 4.607 0 0 0-2.633 2.633 6.554 6.554 0 0 0-.419 2.185c-.043.963-.056 1.268-.056 3.71s0 2.754.056 3.71c.015.748.156 1.486.419 2.187a4.61 4.61 0 0 0 2.634 2.632 6.584 6.584 0 0 0 2.185.45c.963.043 1.268.056 3.71.056s2.755 0 3.71-.056a6.59 6.59 0 0 0 2.186-.419 4.615 4.615 0 0 0 2.633-2.633c.263-.7.404-1.438.419-2.187.043-.962.056-1.267.056-3.71-.002-2.442-.002-2.752-.058-3.709zm-8.953 8.297c-2.554 0-4.623-2.069-4.623-4.623s2.069-4.623 4.623-4.623a4.623 4.623 0 0 1 0 9.246zm4.807-8.339a1.077 1.077 0 0 1-1.078-1.078 1.077 1.077 0 1 1 2.155 0c0 .596-.482 1.078-1.077 1.078z"/><circle cx="11.994" cy="11.979" r="3.003"/></svg>

<?xml version="1.0" encoding="UTF-8" standalone="no"?>
<!DOCTYPE svg PUBLIC "-//W3C//DTD SVG 1.1//EN" "http://www.w3.org/Graphics/SVG/1.1/DTD/svg11.dtd">
<svg width="100%" height="100%" viewBox="0 0 24 24" version="1.1" xmlns="http://www.w3.org/2000/svg" xmlns:xlink="http://www.w3.org/1999/xlink" xml:space="preserve" xmlns:serif="http://www.serif.com/" style="fill-rule:evenodd;clip-rule:evenodd;stroke-linejoin:round;stroke-miterlimit:2;">
    <path d="M20.947,8.305C20.937,7.548 20.795,6.798 20.528,6.089C20.06,4.881 19.103,3.924 17.895,3.456C17.195,3.193 16.456,3.051 15.709,3.036C14.747,2.993 14.442,2.981 12,2.981C9.558,2.981 9.245,2.981 8.29,3.036C7.543,3.051 6.804,3.193 6.105,3.456C4.897,3.924 3.94,4.881 3.472,6.089C3.209,6.788 3.067,7.527 3.053,8.274C3.01,9.237 2.997,9.542 2.997,11.984C2.997,14.426 2.997,14.738 3.053,15.694C3.068,16.442 3.209,17.18 3.472,17.881C3.941,19.089 4.898,20.045 6.106,20.513C6.803,20.786 7.542,20.938 8.291,20.963C9.254,21.006 9.559,21.019 12.001,21.019C14.443,21.019 14.756,21.019 15.711,20.963C16.458,20.948 17.197,20.807 17.897,20.544C19.105,20.075 20.061,19.119 20.53,17.911C20.793,17.211 20.934,16.473 20.949,15.724C20.992,14.762 21.005,14.457 21.005,12.014C21.003,9.572 21.003,9.262 20.947,8.305ZM11.994,16.602C9.44,16.602 7.371,14.533 7.371,11.979C7.371,9.425 9.44,7.356 11.994,7.356C14.53,7.356 16.617,9.443 16.617,11.979C16.617,14.515 14.53,16.602 11.994,16.602ZM16.801,8.263C16.801,8.263 16.8,8.263 16.8,8.263C16.209,8.263 15.723,7.777 15.723,7.186C15.723,7.186 15.723,7.185 15.723,7.185C15.723,6.594 16.209,6.107 16.801,6.107C17.392,6.107 17.878,6.594 17.878,7.185C17.878,7.781 17.396,8.263 16.801,8.263Z" style="fill:rgb(248,106,46);fill-rule:nonzero;"/>
    <circle cx="11.994" cy="11.979" r="3.003" style="fill:rgb(248,106,46);"/>
</svg>
